icon-themes/sifr_svg/cmd/lc_previoustrackedchange.svg

<svg viewBox="0 0 24 24" xmlns="http://www.w3.org/2000/svg"><g fill="#555753"><path d="m3 2v21h17v-10h-1.400391-.599609v8h-13v-17h8v.6738281l1.964844-1.7089843-.964844-.9648438zm15 0c-.3 0-.55232.1007813-.75.3007812l-4.25 3.6992188v2c1 .9 3.225834 2.999219 4.25 3.699219.19768.2.45.300781.75.300781h.599609.400391v-1c0-.256804-.12983-.527669-.3125-.699219l-2.587891-2.300781h6.900391v-2h-6.900391l2.587891-2.3007812c.18267-.1715401.3125-.4423288.3125-.6992188v-1h-.400391zm-12 4v2h4v-2zm0 4v2h4v-2zm6 0v2h4v-.025391c-.744662-.588776-1.52094-1.272413-2.291016-1.974609zm-6 4v2h2v-2zm8 4v2h2v-2z"/><path d="m10 14v2h6v-2zm-4 4v2h6v-2z" opacity=".35"/></g></svg>

<svg xmlns="http://www.w3.org/2000/svg" viewBox="0 0 24 24">
  <path
     style="fill:#555753"
     d="M 3 2 L 3 23 L 20 23 L 20 13 L 18.599609 13 L 18 13 L 18 21 L 5 21 L 5 4 L 13 4 L 13 4.6738281 L 14.964844 2.9648438 L 14 2 L 3 2 z M 18 2 C 17.7 2 17.44768 2.1007813 17.25 2.3007812 L 13 6 L 13 8 C 14 8.9 16.225834 10.999219 17.25 11.699219 C 17.44768 11.899219 17.7 12 18 12 L 18.599609 12 L 19 12 L 19 11 C 19 10.743196 18.87017 10.472331 18.6875 10.300781 L 16.099609 8 L 23 8 L 23 6 L 16.099609 6 L 18.6875 3.6992188 C 18.87017 3.5276787 19 3.25689 19 3 L 19 2 L 18.599609 2 L 18 2 z M 6 6 L 6 8 L 10 8 L 10 6 L 6 6 z M 6 10 L 6 12 L 10 12 L 10 10 L 6 10 z M 12 10 L 12 12 L 16 12 L 16 11.974609 C 15.255338 11.385833 14.47906 10.702196 13.708984 10 L 12 10 z M 6 14 L 6 16 L 8 16 L 8 14 L 6 14 z M 14 18 L 14 20 L 16 20 L 16 18 L 14 18 z "
     />
  <path
     style="opacity:0.35;fill:#555753"
     d="M 10 14 L 10 16 L 16 16 L 16 14 L 10 14 z M 6 18 L 6 20 L 12 20 L 12 18 L 6 18 z "
     />
</svg>
